swiss/communes/0219.svg

<?xml version="1.0" encoding="UTF-8" standalone="no"?>
<!-- Created with Inkscape (http://www.inkscape.org/) -->
<svg
   xmlns:svg="http://www.w3.org/2000/svg"
   xmlns="http://www.w3.org/2000/svg"
   xmlns:xlink="http://www.w3.org/1999/xlink"
   version="1.0"
   width="259.04523"
   height="303.43109"
   id="svg2780">
  <defs
     id="defs2782" />
  <g
     transform="translate(-4.4277432,-797.31169)"
     id="layer1">
    <path
       d="M 5.4277432,798.31169 L 10.101288,994.59242 C 13.439525,1134.7929 254.46118,1134.7929 257.79942,994.59242 L 262.47297,798.31169 L 5.4277432,798.31169 z"
       id="path3282"
       style="fill:#ffffff;fill-opacity:1;fill-rule:evenodd;stroke:#000000;stroke-width:2;stroke-linecap:butt;stroke-miterlimit:4;stroke-dashoffset:0;stroke-opacity:1" />
    <g
       transform="matrix(1.1379931,0,0,1.1379931,-31.352811,-111.99103)"
       id="g4366"
       style="fill:#000000;fill-opacity:1">
      <path
         d="M 157.83683,874.75574 C 174.80108,872.46923 166.92329,859.64063 172.41245,859.64063 C 177.777,859.64063 187.69256,864.73429 187.69256,875.19683 C 187.69256,885.53469 180.73939,889.50733 176.2409,889.50733 C 171.61773,889.50733 170.54068,883.74016 172.15862,881.05501 C 167.78005,882.58127 163.67113,884.27303 163.58726,891.74467 C 163.48692,900.83244 179.14491,905.04133 185.11926,896.28605 C 191.19125,887.38769 192.05612,882.61744 192.18986,873.41918 C 192.32361,864.2195 187.69342,847.30485 176.3315,841.11331 C 165.0656,834.97409 152.09679,838.29109 152.09679,850.8599 C 152.09679,863.30401 161.7425,868.48807 157.83683,874.75574 z"
         id="path10061"
         style="color:#000000;fill:#000000;fill-opacity:1;fill-rule:evenodd;stroke:none;stroke-width:1.00000012px;stroke-linecap:butt;stroke-linejoin:miter;marker:none;marker-start:none;marker-mid:none;marker-end:none;stroke-miterlimit:4;stroke-dasharray:none;stroke-dashoffset:0;stroke-opacity:1;visibility:visible;display:inline;overflow:visible;enable-background:accumulate" />
      <path
         d="M 196.2142,919.6349 C 214.92823,906.25486 198.25351,895.33576 198.25351,875.19683 C 198.25351,853.73987 219.49399,828.2187 196.2142,811.93323 C 172.93441,828.2187 194.17489,853.73987 194.17489,875.19683 C 194.17489,895.33576 177.50017,906.25486 196.2142,919.6349 z"
         id="path9090"
         style="fill:#000000;fill-opacity:1;fill-rule:evenodd;stroke:none;stroke-width:1.00000012px;stroke-linecap:butt;stroke-linejoin:miter;stroke-opacity:1" />
      <use
         transform="matrix(-1,0,0,1,392.4284,0)"
         id="use4352"
         style="fill:#000000;fill-opacity:1"
         x="0"
         y="0"
         width="248.03149"
         height="248.03149"
         xlink:href="#path10061" />
      <rect
         width="31.843252"
         height="8.3518343"
         ry="4.1759171"
         x="180.29257"
         y="872.70905"
         id="rect4354"
         style="opacity:1;color:#000000;fill:#000000;fill-opacity:1;fill-rule:evenodd;stroke:#ffffff;stroke-width:0.87874007px;stroke-linecap:butt;stroke-linejoin:miter;marker:none;marker-start:none;marker-mid:none;marker-end:none;stroke-miterlimit:4;stroke-dasharray:none;stroke-dashoffset:0;stroke-opacity:1;visibility:visible;display:inline;overflow:visible;enable-background:accumulate" />
    </g>
    <use
       transform="translate(-118.63809,134.07959)"
       id="use4372"
       x="0"
       y="0"
       width="248.03149"
       height="248.03149"
       xlink:href="#g4366" />
    <path
       d="M 5.4375,-6.03125 L 5.875,12.875 L 25.8125,76.625 L 56.90625,66.90625 L 77.09375,131.5625 L 108.15625,121.84375 L 128.34375,186.4375 L 159.40625,176.75 L 179.59375,241.375 L 210.6875,231.65625 L 221.5625,266.4375 C 232.5271,257.41334 241.60059,246.27064 247.9375,233.03125 L 234.53125,190.125 L 203.46875,199.84375 L 183.28125,135.1875 L 152.1875,144.90625 L 132,80.3125 L 100.9375,90 L 80.75,25.375 L 49.65625,35.09375 L 36.8125,-6.03125 L 5.4375,-6.03125 z"
       transform="translate(0,804.33069)"
       id="rect4376"
       style="opacity:1;color:#000000;fill:#000000;fill-opacity:1;fill-rule:evenodd;stroke:none;stroke-width:1.00000012px;stroke-linecap:butt;stroke-linejoin:miter;marker:none;marker-start:none;marker-mid:none;marker-end:none;stroke-miterlimit:4;stroke-dasharray:none;stroke-dashoffset:0;stroke-opacity:1;visibility:visible;display:inline;overflow:visible;enable-background:accumulate" />
  </g>
</svg>

<svg xmlns="http://www.w3.org/2000/svg" xmlns:xlink="http://www.w3.org/1999/xlink" version="1.0" width="259.045" height="303.431"><g transform="translate(-4.428 -797.312)"><path d="m5.428 798.312 4.673 196.28c3.339 140.2 244.36 140.2 247.698 0l4.674-196.28H5.428z" style="fill:#fff;fill-opacity:1;fill-rule:evenodd;stroke:#000;stroke-width:2;stroke-linecap:butt;stroke-miterlimit:4;stroke-dashoffset:0;stroke-opacity:1"/><g transform="matrix(1.138 0 0 1.138 -31.353 -111.991)" id="b" style="fill:#000;fill-opacity:1"><path d="M157.837 874.756c16.964-2.287 9.086-15.115 14.575-15.115 5.365 0 15.28 5.093 15.28 15.556 0 10.338-6.953 14.31-11.451 14.31-4.623 0-5.7-5.767-4.082-8.452-4.379 1.526-8.488 3.218-8.572 10.69-.1 9.087 15.558 13.296 21.532 4.541 6.072-8.898 6.937-13.669 7.07-22.867.135-9.2-4.496-26.114-15.857-32.306-11.266-6.139-24.235-2.822-24.235 9.747 0 12.444 9.645 17.628 5.74 23.896z" id="a" style="color:#000;fill:#000;fill-opacity:1;fill-rule:evenodd;stroke:none;stroke-width:1.00000012px;stroke-linecap:butt;stroke-linejoin:miter;marker:none;marker-start:none;marker-mid:none;marker-end:none;stroke-miterlimit:4;stroke-dasharray:none;stroke-dashoffset:0;stroke-opacity:1;visibility:visible;display:inline;overflow:visible;enable-background:accumulate"/><path d="M196.214 919.635c18.714-13.38 2.04-24.3 2.04-44.438 0-21.457 21.24-46.978-2.04-63.264-23.28 16.286-2.04 41.807-2.04 63.264 0 20.139-16.674 31.058 2.04 44.438z" style="fill:#000;fill-opacity:1;fill-rule:evenodd;stroke:none;stroke-width:1.00000012px;stroke-linecap:butt;stroke-linejoin:miter;stroke-opacity:1"/><use transform="matrix(-1 0 0 1 392.428 0)" style="fill:#000;fill-opacity:1" width="248.031" height="248.031" xlink:href="#a"/><rect width="31.843" height="8.352" ry="4.176" x="180.293" y="872.709" style="opacity:1;color:#000;fill:#000;fill-opacity:1;fill-rule:evenodd;stroke:#fff;stroke-width:.87874007px;stroke-linecap:butt;stroke-linejoin:miter;marker:none;marker-start:none;marker-mid:none;marker-end:none;stroke-miterlimit:4;stroke-dasharray:none;stroke-dashoffset:0;stroke-opacity:1;visibility:visible;display:inline;overflow:visible;enable-background:accumulate"/></g><use transform="translate(-118.638 134.08)" width="248.031" height="248.031" xlink:href="#b"/><path d="m5.438-6.031.437 18.906 19.938 63.75 31.093-9.719 20.188 64.656 31.062-9.718 20.188 64.594 31.062-9.688 20.188 64.625 31.094-9.719 10.875 34.781c10.964-9.024 20.038-20.166 26.375-33.406l-13.407-42.906-31.062 9.719-20.188-64.656-31.094 9.718L132 80.312 100.937 90 80.75 25.375l-31.094 9.719L36.813-6.031H5.436z" transform="translate(0 804.33)" style="opacity:1;color:#000;fill:#000;fill-opacity:1;fill-rule:evenodd;stroke:none;stroke-width:1.00000012px;stroke-linecap:butt;stroke-linejoin:miter;marker:none;marker-start:none;marker-mid:none;marker-end:none;stroke-miterlimit:4;stroke-dasharray:none;stroke-dashoffset:0;stroke-opacity:1;visibility:visible;display:inline;overflow:visible;enable-background:accumulate"/></g></svg>
